X: 30618
T: One To Follow It With
R: jig
M: 6/8
K: Amajor
|:"A"cAe cAe|"D"fdB "E"GAB|"A"cAe cAe|"E"EGB dcB|
"A"cAe cAe|"D"fdB "E"BcB|"A"Ac/d/e aec|"E7"dBG dcB:|
|:"A"AaA gAf|ecA "E7"dBG|"A"AaA gAf|"E"EGB dcB|
"A"AaA gAf|ecA "E7"dBG|"A"Ac/d/e aec|"E7"dBG dcB:|

